src/lib/packages/icons/src/assets/line/mastercard.svg

<svg width="24" height="24" viewBox="0 0 24 24" fill="none" xmlns="http://www.w3.org/2000/svg">
<path d="M18 4.25H6C3.58 4.25 2.25 5.58 2.25 8V16C2.25 18.42 3.58 19.75 6 19.75H18C20.42 19.75 21.75 18.42 21.75 16V8C21.75 5.58 20.42 4.25 18 4.25ZM20.25 16C20.25 17.58 19.58 18.25 18 18.25H6C4.42 18.25 3.75 17.58 3.75 16V8C3.75 6.42 4.42 5.75 6 5.75H18C19.58 5.75 20.25 6.42 20.25 8V16ZM8.19 16V16.62H7.96997C7.96997 16.08 8.02 15.81 7.75 15.81C7.44 15.81 7.51001 16.13 7.51001 16.62H7.29999C7.29999 16.08 7.35002 15.81 7.08002 15.81C6.77002 15.81 6.84003 16.11 6.84003 16.62H6.62V15.64H6.84003V15.76C6.92003 15.65 7.02 15.62 7.12 15.62C7.27 15.62 7.38001 15.68 7.45001 15.79C7.54001 15.65 7.66998 15.62 7.78998 15.62C8.02998 15.62 8.17999 15.78 8.17999 16.01L8.19 16ZM10.48 16.32C10.48 16.68 9.90999 16.72 9.60999 16.52L9.70001 16.35C9.89001 16.48 10.25 16.5 10.25 16.33C10.25 16.15 9.64001 16.31 9.64001 15.93C9.64001 15.55 10.2 15.55 10.45 15.71L10.36 15.88C10.18 15.78 9.85999 15.76 9.85999 15.91C9.85999 16.1 10.47 15.91 10.47 16.32H10.48ZM11.37 16.39L11.43 16.57C11.29 16.66 10.82 16.75 10.82 16.28V15.83H10.62V15.63H10.82V15.33H11.04V15.63H11.39V15.83H11.04V16.27C11.04 16.5 11.27 16.44 11.37 16.38V16.39ZM9.17999 15.76C9.10999 15.67 9.00999 15.62 8.87 15.62C8.58999 15.62 8.38 15.84 8.38 16.14C8.38 16.44 8.58999 16.66 8.87 16.66C9.00999 16.66 9.10999 16.61 9.17999 16.52V16.64H9.39001V15.65H9.17999V15.77V15.76ZM8.90002 16.45C8.71002 16.45 8.59998 16.31 8.59998 16.14C8.59998 15.97 8.71002 15.83 8.90002 15.83C9.07002 15.83 9.19 15.97 9.19 16.14C9.19 16.32 9.07002 16.45 8.90002 16.45ZM6 11.06C6 9.02 7.66002 7.35999 9.71002 7.35999C10.44 7.35999 11.15 7.58001 11.76 7.98001C9.82001 9.57001 9.81001 12.57 11.76 14.15C11.15 14.55 10.44 14.77 9.71002 14.77C7.66002 14.77 6 13.11 6 11.06ZM12 8.14999C13.88 9.62999 13.89 12.5 12 13.98C10.11 12.51 10.12 9.63999 12 8.14999ZM12.05 15.62C11.77 15.62 11.56 15.83 11.56 16.14C11.56 16.69 12.17 16.78 12.47 16.52L12.37 16.36C12.16 16.53 11.85 16.52 11.78 16.23H12.52C12.52 15.8 12.32 15.62 12.05 15.62ZM11.79 16.05C11.81 15.91 11.9 15.82 12.04 15.82C12.18 15.82 12.27 15.9 12.3 16.05H11.79ZM17.21 15.77C16.99 15.48 16.41 15.63 16.41 16.14C16.41 16.65 17.01 16.8 17.21 16.51V16.63H17.42V15.25H17.21V15.77ZM16.93 16.46C16.75 16.46 16.63 16.32 16.63 16.15C16.63 15.98 16.75 15.84 16.93 15.84C17.11 15.84 17.23 15.98 17.23 16.15C17.23 16.32 17.11 16.46 16.93 16.46ZM18.01 11.07C18.01 13.12 16.35 14.78 14.3 14.78C13.58 14.78 12.86 14.56 12.25 14.16C14.21 12.58 14.18 9.56999 12.25 7.98999C12.86 7.58999 13.57 7.37 14.3 7.37C16.35 7.37 18.01 9.03001 18.01 11.07ZM16.35 15.66L16.29 15.86C16.19 15.81 15.95 15.79 15.95 16.08V16.63H15.74V15.65H15.95V15.77C16.06 15.57 16.29 15.62 16.36 15.65L16.35 15.66ZM13.38 15.66L13.32 15.86C13.23 15.81 12.98 15.77 12.98 16.08V16.63H12.76V15.65H12.98V15.77C13.08 15.6 13.26 15.6 13.39 15.65L13.38 15.66ZM13.66 16.15C13.66 16.45 13.97 16.55 14.21 16.38L14.31 16.55C14.03 16.79 13.43 16.68 13.43 16.15C13.43 15.62 14 15.5 14.31 15.75L14.21 15.92C13.97 15.74 13.66 15.84 13.66 16.15ZM15.23 15.78C15.01 15.49 14.43 15.65 14.43 16.15C14.43 16.65 15.03 16.81 15.23 16.52V16.64H15.45V15.65H15.23V15.77V15.78ZM14.95 16.47C14.77 16.47 14.66 16.33 14.66 16.16C14.66 15.99 14.77 15.85 14.95 15.85C15.13 15.85 15.25 15.99 15.25 16.16C15.25 16.33 15.13 16.47 14.95 16.47Z" fill="currentColor"/>
</svg>

<svg xmlns="http://www.w3.org/2000/svg" width="24" height="24" fill="none"><path fill="currentColor" d="M18 4.25H6C3.58 4.25 2.25 5.58 2.25 8v8c0 2.42 1.33 3.75 3.75 3.75h12c2.42 0 3.75-1.33 3.75-3.75V8c0-2.42-1.33-3.75-3.75-3.75ZM20.25 16c0 1.58-.67 2.25-2.25 2.25H6c-1.58 0-2.25-.67-2.25-2.25V8c0-1.58.67-2.25 2.25-2.25h12c1.58 0 2.25.67 2.25 2.25v8ZM8.19 16v.62h-.22c0-.54.05-.81-.22-.81-.31 0-.24.32-.24.81H7.3c0-.54.05-.81-.22-.81-.31 0-.24.3-.24.81h-.22v-.98h.22v.12c.08-.11.18-.14.28-.14.15 0 .26.06.33.17.09-.14.22-.17.34-.17.24 0 .39.16.39.39l.01-.01Zm2.29.32c0 .36-.57.4-.87.2l.09-.17c.19.13.55.15.55-.02 0-.18-.61-.02-.61-.4s.56-.38.81-.22l-.09.17c-.18-.1-.5-.12-.5.03 0 .19.61 0 .61.41h.01Zm.89.07.06.18c-.14.09-.61.18-.61-.29v-.45h-.2v-.2h.2v-.3h.22v.3h.35v.2h-.35v.44c0 .23.23.17.33.11v.01Zm-2.19-.63a.368.368 0 0 0-.31-.14c-.28 0-.49.22-.49.52 0 .3.21.52.49.52.14 0 .24-.05.31-.14v.12h.21v-.99h-.21v.12-.01Zm-.28.69c-.19 0-.3-.14-.3-.31 0-.17.11-.31.3-.31.17 0 .29.14.29.31 0 .18-.12.31-.29.31ZM6 11.06a3.707 3.707 0 0 1 5.76-3.08c-1.94 1.59-1.95 4.59 0 6.17A3.709 3.709 0 0 1 6 11.06Zm6-2.91c1.88 1.48 1.89 4.35 0 5.83-1.89-1.47-1.88-4.34 0-5.83Zm.05 7.47c-.28 0-.49.21-.49.52 0 .55.61.64.91.38l-.1-.16c-.21.17-.52.16-.59-.13h.74c0-.43-.2-.61-.47-.61Zm-.26.43c.02-.14.11-.23.25-.23s.23.08.26.23h-.51Zm5.42-.28c-.22-.29-.8-.14-.8.37s.6.66.8.37v.12h.21v-1.38h-.21v.52Zm-.28.69c-.18 0-.3-.14-.3-.31 0-.17.12-.31.3-.31s.3.14.3.31c0 .17-.12.31-.3.31Zm1.08-5.39c0 2.05-1.66 3.71-3.71 3.71-.72 0-1.44-.22-2.05-.62 1.96-1.58 1.93-4.59 0-6.17a3.707 3.707 0 0 1 5.76 3.08Zm-1.66 4.59-.06.2c-.1-.05-.34-.07-.34.22v.55h-.21v-.98h.21v.12c.11-.2.34-.15.41-.12l-.01.01Zm-2.97 0-.06.2c-.09-.05-.34-.09-.34.22v.55h-.22v-.98h.22v.12c.1-.17.28-.17.41-.12l-.01.01Zm.28.49c0 .3.31.4.55.23l.1.17c-.28.24-.88.13-.88-.4s.57-.65.88-.4l-.1.17c-.24-.18-.55-.08-.55.23Zm1.57-.37c-.22-.29-.8-.13-.8.37s.6.66.8.37v.12h.22v-.99h-.22v.13Zm-.28.69c-.18 0-.29-.14-.29-.31 0-.17.11-.31.29-.31s.3.14.3.31c0 .17-.12.31-.3.31Z"/></svg>
